Numix/24/mimetypes/text-rust.svg

<?xml version="1.0" encoding="UTF-8" standalone="no"?>
<svg
   xmlns:dc="http://purl.org/dc/elements/1.1/"
   xmlns:cc="http://creativecommons.org/ns#"
   xmlns:rdf="http://www.w3.org/1999/02/22-rdf-syntax-ns#"
   xmlns:svg="http://www.w3.org/2000/svg"
   xmlns="http://www.w3.org/2000/svg"
   xmlns:sodipodi="http://sodipodi.sourceforge.net/DTD/sodipodi-0.dtd"
   xmlns:inkscape="http://www.inkscape.org/namespaces/inkscape"
   width="24"
   height="24"
   viewBox="0 0 24 24"
   id="svg2"
   version="1.1"
   inkscape:version="0.91 r13725"
   sodipodi:docname="text-rust.svg">
  <metadata
     id="metadata16">
    <rdf:RDF>
      <cc:Work
         rdf:about="">
        <dc:format>image/svg+xml</dc:format>
        <dc:type
           rdf:resource="http://purl.org/dc/dcmitype/StillImage" />
        <dc:title />
      </cc:Work>
    </rdf:RDF>
  </metadata>
  <defs
     id="defs14" />
  <sodipodi:namedview
     pagecolor="#ffffff"
     bordercolor="#666666"
     borderopacity="1"
     objecttolerance="10"
     gridtolerance="10"
     guidetolerance="10"
     inkscape:pageopacity="0"
     inkscape:pageshadow="2"
     inkscape:window-width="1366"
     inkscape:window-height="704"
     id="namedview12"
     showgrid="false"
     inkscape:zoom="1"
     inkscape:cx="13.186065"
     inkscape:cy="12"
     inkscape:window-x="0"
     inkscape:window-y="27"
     inkscape:window-maximized="1"
     inkscape:current-layer="svg2">
    <inkscape:grid
       type="xygrid"
       id="grid3004"
       empspacing="5"
       visible="true"
       enabled="true"
       snapvisiblegridlinesonly="true" />
  </sodipodi:namedview>
  <path
     style="fill:#b2542c;fill-opacity:1"
     d="M 5,1 C 4.527343,1 4,1.527344 4,2 l 0,20 c 0,0.445312 0.554687,1 1,1 l 14,0 c 0.445313,0 0.992367,-0.554753 1,-1 L 20,7 14,1 z"
     id="path4"
     inkscape:connector-curvature="0"
     sodipodi:nodetypes="ssssssccs" />
  <path
     style="fill:#000000;fill-opacity:0.19599998"
     d="m 15,7 5,5 0,-5 z"
     id="path6"
     inkscape:connector-curvature="0"
     sodipodi:nodetypes="cccc" />
  <path
     style="fill:#ffffff;fill-opacity:0.39200003"
     d="m 14,1 6,6 -5,0 C 14.554688,7 14,6.445312 14,6 z"
     id="path8"
     inkscape:connector-curvature="0"
     sodipodi:nodetypes="ccssc" />
  <path
     inkscape:connector-curvature="0"
     style="opacity:1;fill:#ffffff;fill-opacity:1;stroke:none;stroke-width:2;stroke-linecap:round;stroke-linejoin:round;stroke-miterlimit:4;stroke-dasharray:none;stroke-opacity:1"
     d="M 11.699219,8.0000003 11.220703,9.064453 A 5,5 0 0 0 10.203125,9.333985 L 9.2597656,8.654297 8.7402344,8.953125 8.8574219,10.115235 A 5,5 0 0 0 8.1152344,10.857422 L 6.953125,10.740235 6.6542969,11.259766 7.3378906,12.208984 A 5,5 0 0 0 7.0683594,13.220703 L 6,13.699219 l 0,0.601562 1.0644531,0.478516 a 5,5 0 0 0 0.2695313,1.017578 l -0.6796875,0.943359 0.2988281,0.519532 1.1621094,-0.117188 a 5,5 0 0 0 0.7421875,0.742188 l -0.1171875,1.162109 0.5195312,0.298828 0.9492184,-0.683594 a 5,5 0 0 0 1.011719,0.269532 L 11.699219,20 l 0.601562,0 0.478516,-1.064453 a 5,5 0 0 0 1.017578,-0.269531 l 0.943359,0.679687 0.519532,-0.298828 -0.117188,-1.162109 a 5,5 0 0 0 0.742188,-0.742188 l 1.162109,0.117188 0.298828,-0.519532 -0.683594,-0.949218 a 5,5 0 0 0 0.269532,-1.011719 L 18,14.300781 18,13.699219 16.935547,13.220703 a 5,5 0 0 0 -0.269531,-1.017578 l 0.679687,-0.943359 -0.298828,-0.519531 -1.162109,0.117187 A 5,5 0 0 0 15.142578,10.115235 L 15.259766,8.953125 14.740234,8.654297 13.791016,9.337891 A 5,5 0 0 0 12.779297,9.06836 l -0.478516,-1.0683597 -0.601562,0 z M 12,10 a 4,4 0 0 1 4,4 4,4 0 0 1 -4,4 4,4 0 0 1 -4,-4 4,4 0 0 1 4,-4 z"
     id="path4145" />
  <path
     sodipodi:nodetypes="cccscccscccccccccccccccccc"
     inkscape:connector-curvature="0"
     id="path4143"
     style="font-style:normal;font-variant:normal;font-weight:bold;font-stretch:normal;font-size:6.69263983px;line-height:125%;font-family:'Roboto Slab';-inkscape-font-specification:'Roboto Slab Bold';letter-spacing:0px;word-spacing:0px;fill:#ffffff;fill-opacity:1;stroke:none;stroke-width:1px;stroke-linecap:butt;stroke-linejoin:miter;stroke-opacity:1"
     d="m 11.989492,11 c 1.285341,0 2.207779,0.731246 2.210508,2 0,1 -0.702216,1.400644 -1.025698,1.525 0.319806,0.1973 0.405652,0.258464 0.751397,1.125 0.239395,0.6 0.430961,0.6 1.074301,0.624722 l 0,0.725277 -1.275,0 c -0.451809,0 -0.533532,-0.418056 -0.783,-1.049999 -0.373396,-0.945886 -0.747515,-0.943341 -1.231949,-0.949999 L 11,15 l 0,1.25 1,-2e-6 L 12,17 l -3,0 0,-0.750002 1,2e-6 0,-4.5 -1,0 L 9,11 Z M 11,14 l 1,0 c 0.815902,-0.0114 1.1,-0.453187 1.1,-1 5.39e-4,-0.650201 -0.486629,-1 -1.1,-1 l -1,0 z" />
</svg>

<svg xmlns="http://www.w3.org/2000/svg" viewBox="0 0 24 24">
 <path d="m 5 1 c -0.473 0 -1 0.527 -1 1 l 0 20 c 0 0.445 0.555 1 1 1 l 14 0 c 0.445 0 0.992 -0.555 1 -1 l 0 -15 -6 -6 z" style="fill:#b2542c;fill-opacity:1"/>
 <path d="m 15 7 5 5 0 -5 z" style="fill:#000;fill-opacity:0.196"/>
 <path d="m 14 1 6 6 -5 0 c -0.445 0 -1 -0.555 -1 -1 z" style="fill:#fff;fill-opacity:0.392"/>
 <path d="m 11.699 8 -0.479 1.064 a 5 5 0 0 0 -1.018 0.27 l -0.943 -0.68 -0.52 0.299 0.117 1.162 a 5 5 0 0 0 -0.742 0.742 l -1.162 -0.117 -0.299 0.52 0.684 0.949 a 5 5 0 0 0 -0.27 1.012 l -1.068 0.479 l 0 0.602 1.064 0.479 a 5 5 0 0 0 0.27 1.018 l -0.68 0.943 0.299 0.52 1.162 -0.117 a 5 5 0 0 0 0.742 0.742 l -0.117 1.162 0.52 0.299 0.949 -0.684 a 5 5 0 0 0 1.012 0.27 l 0.479 1.068 l 0.602 0 0.479 -1.064 a 5 5 0 0 0 1.018 -0.27 l 0.943 0.68 0.52 -0.299 -0.117 -1.162 a 5 5 0 0 0 0.742 -0.742 l 1.162 0.117 0.299 -0.52 -0.684 -0.949 a 5 5 0 0 0 0.27 -1.012 l 1.068 -0.479 0 -0.602 -1.064 -0.479 a 5 5 0 0 0 -0.27 -1.018 l 0.68 -0.943 -0.299 -0.52 -1.162 0.117 a 5 5 0 0 0 -0.742 -0.742 l 0.117 -1.162 -0.52 -0.299 -0.949 0.684 a 5 5 0 0 0 -1.012 -0.27 l -0.479 -1.068 -0.602 0 z m 0.301 2 a 4 4 0 0 1 4 4 4 4 0 0 1 -4 4 4 4 0 0 1 -4 -4 4 4 0 0 1 4 -4 z" style="fill:#fff;opacity:1;fill-opacity:1;stroke:none"/>
 <path d="m 11.989 11 c 1.285 0 2.208 0.731 2.211 2 0 1 -0.702 1.401 -1.026 1.525 0.32 0.197 0.406 0.258 0.751 1.125 0.239 0.6 0.431 0.6 1.074 0.625 l 0 0.725 -1.275 0 c -0.452 0 -0.534 -0.418 -0.783 -1.05 -0.373 -0.946 -0.748 -0.943 -1.232 -0.95 l -0.71 0 l 0 1.25 1 0 l 0 0.75 l -3 0 0 -0.75 1 0 0 -4.5 -1 0 l 0 -0.75 m 2 3 l 1 0 c 0.816 -0.011 1.1 -0.453 1.1 -1 0.001 -0.65 -0.487 -1 -1.1 -1 l -1 0 z" style="fill:#fff;fill-opacity:1;stroke:none"/>
</svg>
